StripePaymentSheet/StripePaymentSheet/Resources/StripePaymentSheet.xcassets/Carousel/carousel_card_mastercard.imageset/mastercardLight.svg

<svg fill="none" height="40" viewBox="0 0 56 40" width="56" xmlns="http://www.w3.org/2000/svg"><path d="m33.953 10.6436h-11.901v19.4378h11.901z" fill="#ff5f00"/><path d="m23.2778 20.3637c-.0014-1.8717.4229-3.7192 1.2408-5.4027.818-1.6835 2.0082-3.1589 3.4805-4.3145-1.8236-1.43313-4.0135-2.32431-6.3196-2.57168s-4.6353.15904-6.7213 1.17278c-2.086 1.0137-3.8448 2.5939-5.07523 4.5599-1.23046 1.966-1.88297 4.2386-1.88297 6.5579s.65251 4.5918 1.88297 6.5578c1.23043 1.9661 2.98923 3.5462 5.07523 4.56 2.086 1.0137 4.4152 1.4201 6.7213 1.1728 2.3061-.2474 4.496-1.1386 6.3196-2.5717-1.4728-1.156-2.6633-2.6319-3.4812-4.316-.818-1.6842-1.242-3.5324-1.2401-5.4046z" fill="#eb001b"/><g fill="#f79e1b"><path d="m46.8188 28.0247v-.3983h.1717v-.0824h-.4086v.0824h.1614v.3983zm.7932 0v-.4807h-.1236l-.1442.3434-.1442-.3434h-.1236v.4807h.0892v-.364l.1339.3125h.0927l.134-.3125v.364z"/><path d="m48.0001 20.3642c-.0001 2.3195-.6528 4.5922-1.8834 6.5583-1.2307 1.9661-2.9897 3.5462-5.076 4.5598s-4.4157 1.4198-6.7219 1.172c-2.3062-.2477-4.4962-1.1393-6.3197-2.5729 1.4718-1.1566 2.6616-2.6324 3.4798-4.316s1.2433-3.531 1.2433-5.4029c0-1.8718-.4251-3.7193-1.2433-5.4029s-2.008-3.1593-3.4798-4.316c1.8235-1.43355 4.0135-2.32516 6.3197-2.57289s4.6356.15842 6.7219 1.17202c2.0863 1.01357 3.8453 2.59377 5.076 4.55987 1.2306 1.966 1.8833 4.2387 1.8834 6.5582z"/></g></svg>

<svg width="56" height="40" viewBox="0 0 56 40" fill="none" xmlns="http://www.w3.org/2000/svg">
<path d="M33.953 10.6436H22.052V30.0814H33.953V10.6436Z" fill="#FF5F00"/>
<path d="M23.2778 20.3637C23.2764 18.492 23.7007 16.6445 24.5186 14.961C25.3366 13.2775 26.5268 11.8021 27.9991 10.6465C26.1755 9.21337 23.9856 8.32219 21.6795 8.07482C19.3734 7.82745 17.0442 8.23386 14.9582 9.2476C12.8722 10.2613 11.1134 11.8415 9.88297 13.8075C8.65251 15.7735 8 18.0461 8 20.3654C8 22.6847 8.65251 24.9572 9.88297 26.9232C11.1134 28.8893 12.8722 30.4694 14.9582 31.4832C17.0442 32.4969 19.3734 32.9033 21.6795 32.656C23.9856 32.4086 26.1755 31.5174 27.9991 30.0843C26.5263 28.9283 25.3358 27.4524 24.5179 25.7683C23.6999 24.0841 23.2759 22.2359 23.2778 20.3637V20.3637Z" fill="#EB001B"/>
<path d="M46.8188 28.0247V27.6264H46.9905V27.544H46.5819V27.6264H46.7433V28.0247H46.8188ZM47.612 28.0247V27.544H47.4884L47.3442 27.8874L47.2 27.544H47.0764V28.0247H47.1656V27.6607L47.2995 27.9732H47.3922L47.5262 27.6607V28.0247H47.612Z" fill="#F79E1B"/>
<path d="M48.0001 20.3642C48 22.6837 47.3473 24.9564 46.1167 26.9225C44.886 28.8886 43.127 30.4687 41.0407 31.4823C38.9544 32.4959 36.625 32.9021 34.3188 32.6543C32.0126 32.4066 29.8226 31.515 27.9991 30.0814C29.4709 28.9248 30.6607 27.449 31.4789 25.7654C32.2971 24.0818 32.7222 22.2344 32.7222 20.3625C32.7222 18.4907 32.2971 16.6432 31.4789 14.9596C30.6607 13.276 29.4709 11.8003 27.9991 10.6436C29.8226 9.21005 32.0126 8.31844 34.3188 8.07071C36.625 7.82298 38.9544 8.22913 41.0407 9.24273C43.127 10.2563 44.886 11.8365 46.1167 13.8026C47.3473 15.7686 48 18.0413 48.0001 20.3608V20.3642Z" fill="#F79E1B"/>
</svg>
